dist/img/sprites/icon-tg.svg

<svg width="24" height="24" viewBox="0 0 24 24" xmlns="http://www.w3.org/2000/svg">
<path d="M11.7903 0C5.28914 0 0 5.38343 0 12C0 13.9869 0.485144 15.9423 1.40686 17.684L0 24L6.27086 22.6029C7.96629 23.5189 9.86514 24 11.7903 24C18.2914 24 23.58 18.6166 23.58 12C23.58 5.38343 18.2914 0 11.7903 0ZM11.7903 21.7589C10.1149 21.7589 8.46457 21.3063 7.01714 20.4509L6.636 20.2251L2.95428 21.0457L3.78172 17.3309L3.56343 16.9531C2.69829 15.456 2.24171 13.7434 2.24171 12C2.24171 6.61886 6.52572 2.24114 11.7909 2.24114C17.056 2.24114 21.3394 6.61886 21.3394 12C21.3394 17.3811 17.0554 21.7589 11.7903 21.7589Z" />
<path d="M17.303 14.8154C17.2859 14.6542 17.3539 14.4137 16.7773 14.2422C16.2007 14.0708 14.7813 13.6611 14.6367 13.6074C14.4904 13.5525 14.3259 13.524 14.1499 13.6348C13.9767 13.7462 13.8659 13.8057 13.7184 13.9594C13.5727 14.1142 13.3904 14.288 13.2784 14.4245C13.1556 14.5782 13.0213 14.7371 12.7287 14.6057C12.4356 14.4742 11.4721 14.0148 10.655 13.272C9.60242 12.316 9.21785 11.4571 9.05099 11.196C8.88414 10.9331 8.88928 10.7708 9.05728 10.5891C9.22414 10.4085 9.79042 9.81424 10.0453 9.6011C10.3024 9.38738 10.2373 9.20795 10.1179 8.9651C10.0007 8.7211 9.18985 7.43424 9.02128 7.17253C8.85442 6.91138 8.76585 6.73424 8.64299 6.67824C8.52185 6.62053 7.96757 6.67995 7.34928 6.97767C6.72928 7.27595 6.22528 8.4691 6.23385 8.98053C6.24014 9.49081 5.87042 9.52967 7.27385 12.2211C8.67557 14.9108 11.7401 16.3777 11.9396 16.4977C12.1378 16.6154 13.5556 17.4662 14.9156 17.3228C16.2744 17.1794 16.8658 16.3948 17.1144 16.1125C17.3647 15.8314 17.4024 15.5251 17.383 15.34C17.3618 15.1577 17.3196 14.976 17.303 14.8154Z" />
</svg>

<svg width="24" height="24" viewBox="0 0 24 24" xmlns="http://www.w3.org/2000/svg"><path d="M11.79 0C5.29 0 0 5.383 0 12c0 1.987.485 3.942 1.407 5.684L0 24l6.27-1.397A11.619 11.619 0 0011.79 24c6.501 0 11.79-5.383 11.79-12S18.291 0 11.79 0zm0 21.759a9.39 9.39 0 01-4.773-1.308l-.381-.226-3.682.82.828-3.714-.219-.378A9.909 9.909 0 012.242 12c0-5.381 4.284-9.759 9.549-9.759S21.339 6.62 21.339 12s-4.284 9.759-9.549 9.759z"/><path d="M17.303 14.815c-.017-.16.05-.401-.526-.573-.576-.171-1.996-.58-2.14-.635-.147-.054-.311-.083-.487.028-.173.111-.284.17-.432.324-.145.155-.328.329-.44.466-.122.153-.257.312-.55.18-.292-.13-1.256-.59-2.073-1.333-1.053-.956-1.437-1.815-1.604-2.076-.167-.263-.162-.425.006-.607.167-.18.733-.775.988-.988.257-.214.192-.393.073-.636C10 8.721 9.19 7.435 9.02 7.173c-.167-.262-.255-.439-.378-.495-.121-.057-.675.002-1.294.3-.62.298-1.124 1.491-1.115 2.003.006.51-.364.549 1.04 3.24 1.402 2.69 4.466 4.157 4.666 4.277.198.117 1.616.968 2.976.825 1.358-.144 1.95-.928 2.198-1.21.25-.282.288-.588.269-.773-.021-.182-.063-.364-.08-.525z"/></svg>
